color/svg/1F6A2.svg

<svg id="emoji" viewBox="0 0 72 72" xmlns="http://www.w3.org/2000/svg">
  <g id="color">
    <path fill="#ea5a47" d="m68,26.0871h-35.0378c-.5314,0-.9622.391-.9622.8733v2.4004h36v-3.2737Z"/>
    <path fill="#fff" d="m68,25.0871h-21.2584l6.1518-13.0284c.1277-.31.4055-.5086.7113-.5086h14.3953"/>
    <path fill="#3f3f3f" d="m32,29.3608s13.4044,6.7981,15.6724,22.2469c.0637.4344.4686.7673.9515.7673h19.3761v-23.0142"/>
    <path fill="#3f3f3f" d="m63.146,11.5501v-5.6767c0-.4824.3239-.8734.7235-.8734h2.261c.3996,0,.7235.391.7235.8734v5.6767h-3.708Z"/>
    <path fill="#3f3f3f" d="m32,29.3608s10.4044,6.7981,12.6724,22.2469c.0637.4344.4686.7673.9515.7673h21.3761"/>
    <path fill="#ea5a47" d="m67,25.625h-34.0378c-.5314,0-.9622.391-.9622.8734v2.4004h35"/>
    <path fill="none" d="m67,26.0871h-21.2584l7.1518-14.0284c.1277-.31.4055-.5086.7113-.5086h14.3953"/>
    <line x1="68.0047" x2="68" y1="48.0526" y2="68" fill="none"/>
    <path fill="#92d3f5" d="m68,47v21H4v-21h1c3,0,9,3,15,3s10-3,16-3,11,3,16,3,7-3,15-3h1Z"/>
  </g>
  <g id="line">
    <path fill="none" stroke="#000" stroke-linecap="round" stroke-linejoin="round" stroke-width="2" d="m63.146,11.5501v-5.6767c0-.4824.3239-.8734.7235-.8734h2.261c.3996,0,.7235.391.7235.8734v5.6767h-3.708Z"/>
    <line x1="53.7229" x2="64.3773" y1="16.3536" y2="16.3536" fill="none" stroke="#000" stroke-linecap="round" stroke-linejoin="round" stroke-width="2"/>
    <line x1="51.5349" x2="64.3773" y1="20.4474" y2="20.4474" fill="none" stroke="#000" stroke-linecap="round" stroke-linejoin="round" stroke-width="2"/>
    <path fill="none" stroke="#000" stroke-linecap="round" stroke-linejoin="round" stroke-width="2" d="m32,29.3608s8.8829,5.804,12.0224,18.8735"/>
    <line x1="53.7229" x2="64.3773" y1="16.3536" y2="16.3536" fill="none" stroke="#000" stroke-linecap="round" stroke-linejoin="round" stroke-width="2"/>
    <line x1="51.5349" x2="64.3773" y1="20.4474" y2="20.4474" fill="none" stroke="#000" stroke-linecap="round" stroke-linejoin="round" stroke-width="2"/>
    <path fill="none" stroke="#000" stroke-linecap="round" stroke-linejoin="round" stroke-width="2" d="m67,25.625h-34.0378c-.5314,0-.9622.391-.9622.8734v2.4004h35"/>
    <path fill="none" stroke="#000" stroke-linecap="round" stroke-linejoin="round" stroke-width="2" d="m66,25.625h-20.2584l7.1518-13.5663c.1277-.31.4055-.5086.7113-.5086h13.3953"/>
    <line x1="53.7229" x2="64.3773" y1="16.3536" y2="16.3536" fill="none" stroke="#000" stroke-linecap="round" stroke-linejoin="round" stroke-width="2"/>
    <line x1="51.5349" x2="64.3773" y1="20.4474" y2="20.4474" fill="none" stroke="#000" stroke-linecap="round" stroke-linejoin="round" stroke-width="2"/>
    <line x1="53.7229" x2="64.3773" y1="16.3536" y2="16.3536" fill="none" stroke="#000" stroke-linecap="round" stroke-linejoin="round" stroke-width="2"/>
    <line x1="51.5349" x2="64.3773" y1="20.4474" y2="20.4474" fill="none" stroke="#000" stroke-linecap="round" stroke-linejoin="round" stroke-width="2"/>
    <path fill="none" stroke="#000" stroke-linecap="round" stroke-linejoin="round" stroke-width="2" d="m5,47c3,0,9,3,15,3s10-3,16-3,11,3,16,3,7-3,15-3"/>
  </g>
</svg>

<svg id="emoji" viewBox="0 0 72 72" version="1.1" xmlns="http://www.w3.org/2000/svg">
  <g id="color">
    <path fill="#EA5A47" d="M68,26.0871H32.9622c-0.5314,0-0.9622,0.391-0.9622,0.8733v2.4004h36V26.0871z"/>
    <path fill="#FFFFFF" d="M68,25.0871H46.7416l6.1518-13.0284c0.1277-0.31,0.4055-0.5086,0.7113-0.5086H68"/>
    <path fill="#3F3F3F" d="M32,29.3608c0,0,13.4044,6.7981,15.6724,22.2469c0.0637,0.4344,0.4686,0.7673,0.9515,0.7673H68V29.3608"/>
    <path fill="#3F3F3F" d="M63.146,11.5501V5.8734C63.146,5.391,63.4699,5,63.8695,5h2.261c0.3996,0,0.7235,0.391,0.7235,0.8734 v5.6767H63.146z"/>
    <path fill="#3F3F3F" d="M32,29.3608c0,0,10.4044,6.7981,12.6724,22.2469c0.0637,0.4344,0.4686,0.7673,0.9515,0.7673H67"/>
    <path fill="#EA5A47" d="M67,25.625H32.9622C32.4308,25.625,32,26.016,32,26.4984v2.4004h35"/>
    <path fill="none" d="M67,26.0871H45.7416l7.1518-14.0284c0.1277-0.31,0.4055-0.5086,0.7113-0.5086H68"/>
    <line x1="4" x2="4" y1="68" y2="48.2353" fill="none"/>
    <line x1="69" x2="68" y1="48.2353" y2="68" fill="none"/>
    <path fill="#92D3F5" d="M68,47v21H4V47h1c3,0,9,3,15,3s10-3,16-3s11,3,16,3s7-3,15-3H68z"/>
  </g>
  <g id="hair"/>
  <g id="skin"/>
  <g id="skin-shadow"/>
  <g id="line">
    <path fill="none" stroke="#000000" stroke-linecap="round" stroke-linejoin="round" stroke-miterlimit="10" stroke-width="2" d="M63.146,11.5501V5.8734C63.146,5.391,63.4699,5,63.8695,5h2.261c0.3996,0,0.7235,0.391,0.7235,0.8734v5.6767H63.146z"/>
    <line x1="53.7229" x2="64.3773" y1="16.3536" y2="16.3536" fill="none" stroke="#000000" stroke-linecap="round" stroke-linejoin="round" stroke-miterlimit="10" stroke-width="2"/>
    <line x1="51.5349" x2="64.3773" y1="20.4474" y2="20.4474" fill="none" stroke="#000000" stroke-linecap="round" stroke-linejoin="round" stroke-miterlimit="10" stroke-width="2"/>
    <path fill="none" stroke="#000000" stroke-linecap="round" stroke-linejoin="round" stroke-miterlimit="10" stroke-width="2" d="M32,29.3608c0,0,8.8829,5.804,12.0224,18.8735"/>
    <line x1="53.7229" x2="64.3773" y1="16.3536" y2="16.3536" fill="none" stroke="#000000" stroke-linecap="round" stroke-linejoin="round" stroke-miterlimit="10" stroke-width="2"/>
    <line x1="51.5349" x2="64.3773" y1="20.4474" y2="20.4474" fill="none" stroke="#000000" stroke-linecap="round" stroke-linejoin="round" stroke-miterlimit="10" stroke-width="2"/>
    <path fill="none" stroke="#000000" stroke-linecap="round" stroke-linejoin="round" stroke-miterlimit="10" stroke-width="2" d="M67,25.625H32.9622C32.4308,25.625,32,26.016,32,26.4984v2.4004h35"/>
    <path fill="none" stroke="#000000" stroke-linecap="round" stroke-linejoin="round" stroke-miterlimit="10" stroke-width="2" d="M66,25.625H45.7416l7.1518-13.5663c0.1277-0.31,0.4055-0.5086,0.7113-0.5086H67"/>
    <line x1="53.7229" x2="64.3773" y1="16.3536" y2="16.3536" fill="none" stroke="#000000" stroke-linecap="round" stroke-linejoin="round" stroke-miterlimit="10" stroke-width="2"/>
    <line x1="51.5349" x2="64.3773" y1="20.4474" y2="20.4474" fill="none" stroke="#000000" stroke-linecap="round" stroke-linejoin="round" stroke-miterlimit="10" stroke-width="2"/>
    <line x1="53.7229" x2="64.3773" y1="16.3536" y2="16.3536" fill="none" stroke="#000000" stroke-linecap="round" stroke-linejoin="round" stroke-miterlimit="10" stroke-width="2"/>
    <line x1="51.5349" x2="64.3773" y1="20.4474" y2="20.4474" fill="none" stroke="#000000" stroke-linecap="round" stroke-linejoin="round" stroke-miterlimit="10" stroke-width="2"/>
    <path fill="none" stroke="#000000" stroke-linecap="round" stroke-linejoin="round" stroke-miterlimit="10" stroke-width="2" d="M5,47c3,0,9,3,15,3s10-3,16-3s11,3,16,3s7-3,15-3"/>
  </g>
</svg>
